static/images/readmore.svg

<svg height="10" viewBox="0 0 11 10" width="11" xmlns="http://www.w3.org/2000/svg"><path d="m105.106526 12.0040606c-.029971-.0026881-.060323-.0040606-.090998-.0040606h-6.0167099c-.5449694 0-.9988181.4477153-.9988181 1 0 .5561352.4471861 1 .9988181 1h6.0167099c.030685 0 .06108-.0014194.091122-.0041968l-1.668344 1.8302838c-.602168.5674732-.514361 1.3195888 0 1.7391304.454859.4143514.477063.4347826.85868.4347826.263274 0 .594988-.1302814.85868-.4347826l3.43472-3.6956522c.550897-.5980756.541386-1.2232163 0-1.7391304l-3.43472-3.69565219c-.499401-.60700693-1.234206-.54418074-1.71736 0-.542657.42999753-.601064 1.11659872 0 1.73913039z" fill="#02afde" fill-rule="evenodd" transform="translate(-98 -8)"/></svg>

<?xml version="1.0" encoding="UTF-8"?>
<svg width="11px" height="10px" viewBox="0 0 11 10" version="1.1" xmlns="http://www.w3.org/2000/svg" xmlns:xlink="http://www.w3.org/1999/xlink">
    <!-- Generator: Sketch 46.2 (44496) - http://www.bohemiancoding.com/sketch -->
    <title>ic/readmore</title>
    <desc>Created with Sketch.</desc>
    <defs></defs>
    <g id="Page-1" stroke="none" stroke-width="1" fill="none" fill-rule="evenodd">
        <g id="Rakam-UI-Screen" transform="translate(-321.000000, -2515.000000)" fill="#02AFDE">
            <g id="business" transform="translate(223.000000, 2006.000000)">
                <g id="txt" transform="translate(0.000000, 324.000000)">
                    <g id="Click-Me" transform="translate(0.000000, 177.000000)">
                        <path d="M105.106526,12.0040606 C105.076555,12.0013725 105.046203,12 105.015528,12 L98.9988181,12 C98.4538487,12 98,12.4477153 98,13 C98,13.5561352 98.4471861,14 98.9988181,14 L105.015528,14 C105.046213,14 105.076608,13.9985806 105.10665,13.9958032 L103.438306,15.826087 C102.836138,16.3935602 102.923945,17.1456758 103.438306,17.5652174 C103.893165,17.9795688 103.915369,18 104.296986,18 C104.56026,18 104.891974,17.8697186 105.155666,17.5652174 L108.590386,13.8695652 C109.141283,13.2714896 109.131772,12.6463489 108.590386,12.1304348 L105.155666,8.43478261 C104.656265,7.82777568 103.92146,7.89060187 103.438306,8.43478261 C102.895649,8.86478014 102.837242,9.55138133 103.438306,10.173913 L105.106526,12.0040606 Z" id="ic/readmore"></path>
                    </g>
                </g>
            </g>
        </g>
    </g>
</svg>
